X: 37108
T: Silvery Voe, The
R: reel
M: 4/4
K: Fmajor
C2|:A3G F2C2|D2F2 C4|D2B2 C2A2|BAGF G2C2|
A3G F2C2|DFC3B|AC3 B,2G2|1 F4 F2C2:|2 F4 F2AB||
c3A f3A|B3c/d/ c3A|B2dB A2cA|BAGF G2AB|
c3A f3A|B2cd c3B|AC3 A3G|F3E FG AB|
c3A f3A|B3c/d/ c3A|BdcB AcBA|BAGF G2C2|
A3G F2C2|D2F2 C2B2|AC3 B,2G2|F4F2||

